X:3
T:Slunk Jerks polska (Bingsjo)
R:polska J
Z:2000 Brian Wilson
Z:i Stoten, Track 20
M:3/4
L:1/8
K:D
|: "A"A>c e2 "A"e2 | "A/E"e/f/e/c/ A>B "A/E"AG
| "D/F#"F2 A/B/A/F/ "D/F#"Ad | "D/G"f>e dc/d/ "A"e2
|  "A"A>c e2 "A"e2 | "A"e/f/e/c/ A>B AG
| "D"F2 A/B/A/F/ "D/A"Ad | "D"fe/f/ d4
:: "D"d>f a2 "D/A"a2 | "D"af/d/ "G"g2 b2 | "A"a>g fg/f/ "A/C#"ec | "D"d>e fg/f/ "A"e2
|  "A"c>e a2 a2 | "A"af/d/ "G"g2 b2 | "A"a>g fg/f/ "A/C#"ec | "D"d2 "D"d4 :|
